!!!OTL: NACH GRUENER FARB MEIN HERZ VERLANGT
!!!ARE: Europa, Mitteleuropa, Deutschland
!!!SCT: E0502
!!!YEM: Copyright 1995, estate of Helmut Schaffrath.
**kern
*ICvox
*Ivox
*M4/4
*k[b-]
*F:
{4f
4f
4f
=1
4cc
4cc
4dd
4ee
=2
2ff
4r}
{4cc
=3
4b-
4cc
4a
4g
=4
1f
=5
4r}
{4f
4f
4f
=6
4cc
4cc
4dd
4ee
=7
2ff
4r}
{4cc
=8
4b-
4cc
4a
4g
=9
1f
=10
4r}
{4cc
4.cc
8b-
=11
4a
4f
4a
4b-
=12
2cc
4r}
{4ff
=13
4gg
4ee
4ff
4dd
=14
2cc
4r}
{4cc
=15
4cc
4dd
4ee
4cc
=16
4ff
4dd
4.cc}
{8cc
=17
4dd
4ff
4ee
4dd
=18
2cc
2a
=19
2g
4r}
{4f
=20
4a
4cc
4a
4g
=21
2f
2r
=22
4r}
==
!!!AGN: Liebes - Lied
!!!ONB: ESAC (Essen Associative Code) Database: ERK1
!!!AMT: simple quadruple
!!!AIN: vox
!!!EED: Helmut Schaffrath
!!!EEV: 1.0
*-
